X:1
T: Mill-Town Maid
C:
R:Reel
Q: 232
K:D
M:4/4
L:1/8
dc|BE E2 Bd cd|BE E2 dA FA|BE E2 Bc de|fd ec dA FA|
BE E2 Bd cd|BE E2 dA FA|BE E2 Bc de|fd ec dA FA|
|:Be ec d2 dc|Be ec dA FA|Be ec df ag|fe dc dA FA|
Be ec d2 dc|Be ec de fg|af ba gf eg|((3fga) ef df ec:|
BE E2 Bd cd|BE E2 dA FA|BE E2 Bc de|fd ec dA FA|
BE E2 Bd cd|BE E2 dA FA|BE E2 Bc de|fd ec dA FA||
